resources/assets/svg/dots-three-vertical.svg

<svg xmlns="http://www.w3.org/2000/svg" viewBox="0 0 20 20">
  <path d="M10.001 7.8C8.786 7.8 7.8 8.785 7.8 10s.986 2.2 2.201 2.2S12.2 11.215 12.2 10s-.984-2.2-2.199-2.2zm0-2.6c1.215 0 2.199-.986 2.199-2.2S11.216.8 10.001.8C8.786.8 7.8 1.785 7.8 3s.986 2.2 2.201 2.2zm0 9.6c-1.215 0-2.201.985-2.201 2.2s.986 2.2 2.201 2.2S12.2 18.215 12.2 17s-.984-2.2-2.199-2.2z"/>
</svg>

<?xml version="1.0" encoding="utf-8"?>
<!-- Generator: Adobe Illustrator 18.1.1, SVG Export Plug-In . SVG Version: 6.00 Build 0)  -->
<!DOCTYPE svg PUBLIC "-//W3C//DTD SVG 1.1//EN" "http://www.w3.org/Graphics/SVG/1.1/DTD/svg11.dtd">
<svg version="1.1" id="Dots_three_vertical" xmlns="http://www.w3.org/2000/svg" xmlns:xlink="http://www.w3.org/1999/xlink"
	 x="0px" y="0px" viewBox="0 0 20 20" enable-background="new 0 0 20 20" xml:space="preserve">
<path d="M10.001,7.8C8.786,7.8,7.8,8.785,7.8,10s0.986,2.2,2.201,2.2c1.215,0,2.199-0.985,2.199-2.2S11.216,7.8,10.001,7.8z
	 M10.001,5.2C11.216,5.2,12.2,4.214,12.2,3S11.216,0.8,10.001,0.8C8.786,0.8,7.8,1.785,7.8,3S8.786,5.2,10.001,5.2z M10.001,14.8
	C8.786,14.8,7.8,15.785,7.8,17s0.986,2.2,2.201,2.2c1.215,0,2.199-0.985,2.199-2.2S11.216,14.8,10.001,14.8z"/>
</svg>
